svg/furkot/nps/motorcycle.svg

<svg viewBox="0 0 512 512" xmlns="http://www.w3.org/2000/svg"><path d="m282.522 70.4c-6.452-24.986-29.287-43.54-56.32-43.54-32.205 0-58.266 25.927-58.266 58.132 0 5.427.614 10.342 2.048 15.206h23.347c1.741 4.045 3.584 6.349 3.584 6.349 6.963 10.138 18.739 16.743 31.949 16.743 21.555 0 39.117-17.562 39.117-39.117 0-4.967 1.229-9.472-.819-13.722h15.36zm-1.639 347.341c-6.144 6.246-14.541 10.957-24.115 10.957v-126.516l87.603-25.19 21.914 43.213z"/><path d="m207.36 128.205c-5.734-6.451-14.131-10.496-23.501-10.496-9.984 0-18.893 4.608-24.627 11.878l-69.478 106.189c-2.868 4.71-4.455 10.24-4.455 16.077 0 10.957 5.53 20.531 13.978 26.214l93.235 51.763v88.013c0 12.493 10.086 22.579 22.528 22.579 12.39 0 22.477-10.086 22.477-22.579v-109.926s3.021-17.511-16.896-27.136l-58.163-30.362 42.342-64.717 22.528 35.277c4.454 7.168 10.547 9.933 16.077 9.779l57.753-.204c23.501 0 23.501-30.516 0-30.413h-46.796zm255.488 144.333c.922.87 1.536 2.048 1.536 3.532 0 2.765-2.304 5.069-5.12 5.069-.768 0-1.229 0-1.792-.205-10.035-4.3-16.384-6.912-27.904-6.912-7.731 0-17.152 2.663-28.109 11.52l-10.137-20.07c12.646-3.789 23.04-7.168 33.843-7.168 17.305.051 26.419 3.584 37.683 14.234z"/><path d="m75.162 287.949 97.894 53.965.205 21.657-111.77-61.542c-8.089-4.147-18.969-6.605-26.675-6.605-11.54 0-17.925 2.662-27.848 6.963-.619.205-1.136.205-1.838.205-2.775 0-5.13-2.253-5.13-5.069 0-1.485.589-2.611 1.51-3.533 11.321-10.649 22.866-14.233 40.172-14.233 8.847 0 19.656 1.024 33.48 8.192zm9.062 198.502c31.898 0 57.702-25.805 57.702-57.753 0-31.898-25.804-57.754-57.702-57.754-31.846 0-57.667 25.856-57.667 57.754 0 31.948 25.821 57.753 57.667 57.753zm-83.226-57.753c0-45.978 37.284-83.354 83.226-83.354 46.08 0 83.405 37.376 83.405 83.354 0 45.977-37.325 83.302-83.405 83.302-45.942 0-83.226-37.325-83.226-83.302zm427.648 57.753c31.949 0 57.754-25.805 57.754-57.753 0-31.898-25.805-57.754-57.754-57.754-31.795 0-57.651 25.856-57.651 57.754 0 31.948 25.856 57.753 57.651 57.753zm-83.2-57.753c0-45.978 37.223-83.354 83.2-83.354 45.978 0 83.354 37.376 83.354 83.354 0 45.977-37.376 83.302-83.354 83.302-45.977 0-83.2-37.325-83.2-83.302zm64.871-95.181-40.499-80.947c-5.223-9.728-15.668-16.384-27.495-16.384h-26.419c-5.171 0-9.318 4.3-9.318 9.42 0 5.223 4.147 9.37 9.318 9.37l26.419-.102c4.455 0 9.472 3.02 11.315 7.372l38.093 77.722z"/></svg>

<svg xmlns="http://www.w3.org/2000/svg" viewBox="0 0 512 512"><path d="M282.522 70.4C276.07 45.414 253.235 26.86 226.202 26.86 193.997 26.86 167.936 52.787 167.936 84.992 167.936 90.419 168.55 95.334 169.984 100.198H193.331C195.072 104.243 196.915 106.547 196.915 106.547 203.878 116.685 215.654 123.29 228.864 123.29 250.419 123.29 267.981 105.728 267.981 84.173 267.981 79.206 269.21 74.701 267.162 70.451H282.522L282.522 70.4ZM280.883 417.741C274.739 423.987 266.342 428.698 256.768 428.698V302.182L344.371 276.992 366.285 320.205 280.883 417.741Z"/><path d="M207.36 128.205C201.626 121.754 193.229 117.709 183.859 117.709 173.875 117.709 164.966 122.317 159.232 129.587L89.754 235.776C86.886 240.486 85.299 246.016 85.299 251.853 85.299 262.81 90.829 272.384 99.277 278.067L192.512 329.83V417.843C192.512 430.336 202.598 440.422 215.04 440.422 227.43 440.422 237.517 430.336 237.517 417.843V307.917C237.517 307.917 240.538 290.406 220.621 280.781L162.458 250.419 204.8 185.702 227.328 220.979C231.782 228.147 237.875 230.912 243.405 230.758L301.158 230.554C324.659 230.554 324.659 200.038 301.158 200.141H254.362L207.36 128.205ZM462.848 272.538C463.77 273.408 464.384 274.586 464.384 276.07 464.384 278.835 462.08 281.139 459.264 281.139 458.496 281.139 458.035 281.139 457.472 280.934 447.437 276.634 441.088 274.022 429.568 274.022 421.837 274.022 412.416 276.685 401.459 285.542L391.322 265.472C403.968 261.683 414.362 258.304 425.165 258.304 442.47 258.355 451.584 261.888 462.848 272.538Z"/><path d="M75.162 287.949L173.056 341.914 173.261 363.571 61.491 302.029C53.402 297.882 42.522 295.424 34.816 295.424 23.276 295.424 16.891 298.086 6.968 302.387 6.349 302.592 5.832 302.592 5.13 302.592 2.355 302.592 0 300.339 0 297.523 0 296.038 0.589 294.912 1.51 293.99 12.831 283.341 24.376 279.757 41.682 279.757 50.529 279.757 61.338 280.781 75.162 287.949ZM84.224 486.451C116.122 486.451 141.926 460.646 141.926 428.698 141.926 396.8 116.122 370.944 84.224 370.944 52.378 370.944 26.557 396.8 26.557 428.698 26.557 460.646 52.378 486.451 84.224 486.451ZM0.998 428.698C0.998 382.72 38.282 345.344 84.224 345.344 130.304 345.344 167.629 382.72 167.629 428.698 167.629 474.675 130.304 512 84.224 512 38.282 512 0.998 474.675 0.998 428.698ZM428.646 486.451C460.595 486.451 486.4 460.646 486.4 428.698 486.4 396.8 460.595 370.944 428.646 370.944 396.851 370.944 370.995 396.8 370.995 428.698 370.995 460.646 396.851 486.451 428.646 486.451ZM345.446 428.698C345.446 382.72 382.669 345.344 428.646 345.344 474.624 345.344 512 382.72 512 428.698 512 474.675 474.624 512 428.646 512 382.669 512 345.446 474.675 345.446 428.698ZM410.317 333.517L369.818 252.57C364.595 242.842 354.15 236.186 342.323 236.186H315.904C310.733 236.186 306.586 240.486 306.586 245.606 306.586 250.829 310.733 254.976 315.904 254.976L342.323 254.874C346.778 254.874 351.795 257.894 353.638 262.246L391.731 339.968 410.317 333.517Z"/></svg>
